X:1
T:마지막 인사  / Last greeting  The Final Farewell
T: The Final Farewell 
T:흡수 
T:이병우 ( Lee Byung Woo) 
T: 마지막 인사 
T:Absorption
T:Transcripción: Guillermo Segovia
T:Transcripción: Guillermo Segovia
T:Transcripción: Guillermo Segovia
T:Transcripción: Guillermo Segovia
C:Lee Byung Woo (이병우)
Z:Transcripción: Guillermo Segovia
%%score { ( 1 2 3 7 ) | ( 4 5 6 8 ) }
L:1/8
Q:1/4=90
M:4/4
K:F
V:1 treble-8 nm="Guitar"
V:2 treble-8 
V:3 treble-8 
V:7 treble-8 
V:4 tab stafflines=6 strings=D2,A2,D3,G3,B3,E4 nostems 
V:5 tab stafflines=6 strings=D2,A2,D3,G3,B3,E4 nostems 
V:6 tab stafflines=6 strings=D2,A2,D3,G3,B3,E4 nostems 
V:8 tab stafflines=6 strings=D2,A2,D3,G3,B3,E4 nostems 
V:1
"^Dropped D\n6 = D" z2 !4!f!1!g- g !3!a2 b- | b8 | z2 !0!e!1!f- f !4!g2 !1!f- | f8 | %4
 z2 !4!d!0!e- e !2!f2 !0!e- | e2 !4!d!3!^c- c !0!e2 d- | d8- | d6 x2 | %8
 z2 !4!f!0!e !4!f2 !1!g!4!a- | a8 | z2 !0!e!4!d !0!e2 !1!f!4!g- | g8 | z3 !1!d2 !4!e2 !4!f | %13
 !4!f2 !0!e!2!d- d !0!e2 !1!c- | c8- | c8 | z2 !4!f!0!e f2 !1!g!4!a- | a8 | %18
 z2 !0!e!4!d e2 !1!f!4!g- | g6 z !4!d'- | d'3 !4!c'2 !2!b2 !4!a- | a4 !2!g2 !0!e!1!f- | %22
 f3 !0!e2 !1!x3- | f6 x2 | z2 !4!f!0!e !4!f2 !1!g!4!a- | a2 !4!f!0!e !4!f2 !1!g!4!a- | %26
 a2 !0!e!4!d !0!e2 !1!f!4!g- | g2 !0!e!4!d !0!e2 !1!f!1!g- | g3 !1!d2 !4!e2 !4!f | %29
 !4!f2 !0!e!2!d- d !0!e2 !1!c- | c8- | c8 | z2 fe f2 ga- | a2 fe f2 ga- | a2 ed e2 fg- | %35
 g6 z !4!d'- | d'3 !4!c'2 !2!b2 !4!a- | a4 !2!g2 !0!e!1!f- | f3 !0!e2 !1!x3- | f6 x2 | %40
 !1!d3 !4!e2 !1!d3 | !3!d3 !4!e2 !3!d3 | !4!d4 !3!^c!4!d !0!e!1!f- | f3 !0!e2 !1!x3 | %44
 !1!d3 !4!e2 !1!d3 | !3!d3 !4!e2 !3!d3 | !4!d4 !3!^c!4!d !0!e!1!f- | f6 !1!g!4!a | b3 _e2 b2 e | %49
 z2 a2 b2 c'2 | d'3 g2 d'2 g | z2 ^c'2 d'2 e'2 | z2 !3!f'f'- f'3 f' | z2 !3!e'e'- e'3 e' | %54
"^₵8" z2 !4!d'2"^₵5" !4!c'2 !2!b2 |"^₵4" z2 !3!b2 !3!a2 !4!f2 |"^₵I" z2 !4!g2 !1!f2 !4!g2 | %57
"^₵3" !4!a2 !4!b2 !4!a2 !1!g2 | !4!f3 !3!e2 f3 | x6 z2 | z2 !4!f!0!e !4!f2 !1!g!4!a- | a8 | %62
 z2 !0!e!4!d !0!e2 !1!f!4!g- | g8 | z2 !4!d!0!e- e !2!f2 !0!e- | e2 !4!d!3!^c- c !0!e2 d- | d8- | %67
 d6 x2 | z2 !4!f!1!g- g !3!a2 b- | b8 | z2 !0!e!1!f- f !4!g2 !1!f- | f8 | %72
 z2 !4!d!0!e- e !2!f2 !0!e- | e2 !4!d!3!^c- c !0!e2 d- | d8- | d8 | z2 !4!f!1!g- g !3!a2 b- | b8 | %78
"^₵8" x2 !3!a!4!b- b !1!c'2 !4!d'- | d'4 !0!e4 | z2 !4!d!0!e- e !1!f2 !4!g- | %81
[Q:1/4=88] g4[Q:1/4=85] !1!f2 !3!^c2 |[Q:1/4=82] !4!d!2!A(!1!fe)dA!3!FA- | !fermata!A6 x2 |] %84
V:2
 x !1!Bfg Ba B!4!b | x !1!BeB dB eB | x !2!Aef Ag Af | x !3!AdA =BA dA | x !0!Gde Gf Ge | %5
x!2!E- E2 Ge Gd | x !1!A!3!F!0!e AdFA | F,6 z2 | x !1!Bfe fBga | x B!3!eB !1!dB !3!eB | %10
 x !2!Aed eAfg | x !2!A!3!dA !0!=BA !3!dA | x !0!D!1!Bd Be Bf | x !0!Ged Ge Gc | %14
 x !4!C!0!D!0!G DCDG | x CD!2!A DCDA | x !1!Bfe fBga | x BeB dB eB | x !2!Aed eAfg | %19
 x !2!A!3!dA x dGd' | x !0!G!0!Dc' GbDa | x !0!G!1!^cG gGef | x !2!A!4!de dfdA | D6 z2 | %24
 x !1!Bfe f!1!Bga | x !1!Bfe fBga | x !2!Aed e!2!Afg | x !3!Aed e!2!Afg | x !0!D!1!Bd Be Bf | %29
 x !0!Ged Ge Gc | x !4!CDG DCDG | x CD!2!A DCDA | x Bfe fBga | x Bfe fBga | x Aed eAfg | %35
 x AdA x dGd' | x !0!G!0!Dc' GbDa | x !0!G!1!^cG gGef | x !2!A!4!de dfdA | D6 z2 | %40
!3!x!0!D !0!B4 DB |!2!x!0!D !1!A4 DG | z !2!E!0!GE !0!A,4 | x !2!A!4!de dfdA |!3!x!0!D !0!B4 DB | %45
!2!x!0!D !1!A4 DG | z !2!E!0!GE !0!A,4 | x !2!A!4!df dA z2 | x _eGe BxGe | x ca_e bcc'e | %50
 x d^Ag dx^Ag | x e^c'g d'ee'g | x !1!bf' f'2 bGf' | x !1!ae' e'2 aGe' | x !3!ad'a x !3!dbd | %55
 x !2!ebe x !1!BfB | x !3!dgd f!3!d gd | a!3!e be a!3!e ge | x D !1!B4 DB | !arpeggio![^CGBe]6 z2 | %60
 x !1!Bfe fBga | x B!3!eB !1!dB !3!eB | x !2!Aed eAfg | x !2!A!3!dA !0!=BA !3!dA | x !0!Gde Gf Ge | %65
x!2!E- E2 Ge Gd | x !1!A!3!F!0!e AdFA | F,6 z2 | x !1!Bfg Ba B!4!b | x !1!BeB dB eB | %70
 x !2!Aef Ag Af | x !3!AdA =BA dA | x !0!Gde Gf Ge |x!2!E- E2 Ge Gd | x AFe AdFA | x AFe AdFA | %76
 x !1!Bfg Ba B!4!b | x !1!BeB dB eB | x !2!cab cc' cd' | x !2!f!3!afxfaf | x !2!Ade !3!F2 A2 | %81
 x !0!G!3!^c!2!E fGcG | x8 | x8 |] %84
V:3
 !0!D8 | !2!^C8 | !3!C8 | !2!=B,8 | !1!B,6 x2 | !0!A,8 | !2!F,8 | x8 | !0!D8 | !2!^C8 | !3!C6 x2 | %11
 !1!=B,8 | !3!G,7 x | !1!C6 x2 | !3!F,8 | F,8 | D8 | ^C8 | !3!C6 x2 | !1!=B,4 !0!D4 | !1!G,4 x4 | %21
 !0!A,8 | !0!D8 | x8 | !0!D8 | !2!^C8 | !3!C6 x2 | !2!=B,6 x2 | !3!G,7 x | !1!C6 x2 | !3!F,8 | %31
 F,8 | D8 | ^C8 | C6 x2 | =B,4 D4 | !1!G,4 x4 | !0!A,8 | !0!D8 | x8 | G,4 G,2 x2 | F,4 F,4 | %42
 !1!E,4 x4 | D8 | G,4 G,2 x2 | F,4 F,4 | !1!E,4 x4 | !0!D6 x2 | C6 x2 | F6 x2 | E6 x2 | A6 x2 | %52
 !0!G4 G4 | !0!G4 G4 | !1!F4 !1!G4 | !1!^C4 !0!D4 | !1!B,4 !2!=B,4 | !1!C4 !2!^C4 | D,4 D,4 | x8 | %60
 !0!D8 | !2!^C8 | !3!C6 x2 | !1!=B,8 | !1!B,6 x2 | !0!A,8 | !2!F,8 | x8 | !0!D8 | !2!^C8 | !3!C8 | %71
 !2!=B,8 | !1!B,6 x2 | !0!A,8 | F,8 | F,8 | !0!D8 | !2!^C8 | !1!F6 x2 | !1!=B6 x2 | !1!B,7 x | %81
 A,6 x2 | !3!F8 | D,6 z2 |] %84
V:4
 x2 !2!F !1!G- !1!G !1!A2 !1!B- | !1!B8 | x2 !1!E !1!F- !1!F !1!G2 !1!F- | !1!F8 | %4
 x2 !2!D !1!E- !1!E !1!F2 !1!E- | !1!E2 !2!D !2!^C- !2!C !1!E2 !2!D- | !2!D8- | !2!D6 x2 | %8
 x2 !2!F !1!E !2!F2 !1!G !1!A- | !1!A8 | x2 !1!E !2!D !1!E2 !1!F !1!G- | !1!G8 | %12
 x3 !2!D2 !2!E2 !2!F | !2!F2 !1!E !2!D- !2!D !1!E2 !2!C- | !2!C8- | !2!C8 | %16
 x2 !2!F !1!E !2!F2 !1!G !1!A- | !1!A8 | x2 !1!E !2!D !1!E2 !1!F !1!G- | !1!G6 x !1!d- | %20
 !1!d3 !1!c2 !1!B2 !1!A- | !1!A4 !1!G2 !1!E !1!F- | !1!F3 !1!E2 !2!x3- | !1!F6 x2 | %24
 x2 !2!F !1!E !2!F2 !1!G !1!A- | !1!A2 !2!F !1!E !2!F2 !1!G !1!A- | %26
 !1!A2 !1!E !2!D !1!E2 !1!F !1!G- | !1!G2 !1!E !2!D !1!E2 !1!F !1!G- | !1!G3 !2!D2 !2!E2 !2!F | %29
 !2!F2 !1!E !2!D- !2!D !1!E2 !2!C- | !2!C8- | !2!C8 | x2 !2!F !1!E !2!F2 !1!G !1!A- | %33
 !1!A2 !2!F !1!E !2!F2 !1!G !1!A- | !1!A2 !1!E !2!D !1!E2 !1!F !1!G- | !1!G6 x !1!d- | %36
 !1!d3 !1!c2 !1!B2 !1!A- | !1!A4 !1!G2 !1!E !1!F- | !1!F3 !1!E2 !2!x3- | !1!F6 x2 | %40
 !2!D3 !2!E2 !2!D3 | !2!D3 !2!E2 !2!D3 | !2!D4 !2!^C !2!D !1!E !1!F- | !1!F3 !1!E2 !1!F3 | %44
 !2!D3 !2!E2 !2!D3 | !2!D3 !2!E2 !2!D3 | !2!D4 !2!^C !2!D !1!E !1!F- | !1!F6 !1!G !1!A | %48
 !1!B3 !2!_E2 !1!B2 !2!E | x2 !1!A2 !1!B2 !1!c2 | !1!d3 !2!G2 !1!d2 !2!G | x2 !1!^c2 !1!d2 !1!e2 | %52
 x2 !1!f !1!f- !1!f3 !1!f | x2 !1!e !1!e- !1!e3 !1!e |"^₵8" x2 !1!d2"^₵5" !1!c2 !1!B2 | %55
"^₵4" x2 !1!B2 !1!A2 !2!F2 |"^₵I" x2 !1!G2 !1!F2 !1!G2 |"^₵3" !1!A2 !1!B2 !1!A2 !1!G2 | %58
 !2!F3 !2!E2 !2!F3 | x6 x2 | x2 !2!F !1!E !2!F2 !1!G !1!A- | !1!A8 | %62
 x2 !1!E !2!D !1!E2 !1!F !1!G- | !1!G8 | x2 !2!D !1!E- !1!E !1!F2 !1!E- | %65
 !1!E2 !2!D !2!^C- !2!C !1!E2 !2!D- | !2!D8- | !2!D6 x2 | x2 !2!F !1!G- !1!G !1!A2 !1!B- | !1!B8 | %70
 x2 !1!E !1!F- !1!F !1!G2 !1!F- | !1!F8 | x2 !2!D !1!E- !1!E !1!F2 !1!E- | %73
 !1!E2 !2!D !2!^C- !2!C !1!E2 !2!D- | !2!D8- | !2!D8 | x2 !2!F !1!G- !1!G !1!A2 !1!B- | !1!B8 | %78
"^₵8" x2 !2!A !2!B- !1!B !1!c2 !1!d- | !1!d4 !1!E4 | x2 !2!D !1!E- !1!E !1!F2 !1!G- | %81
 !1!G4 !1!F2 !2!^C2 | !2!D !3!A, (!1!F !1!E) !2!D !3!A, !4!F, !3!A,- | !fermata!!3!A,6 x2 |] %84
V:5
 x !3!B, !1!x !2!x !3!B, !2!x !3!B, !2!x | x !3!B, !3!x !3!B, !3!x !3!B, !3!x !3!B, | %2
 x !3!A, !2!x !2!x !3!A, !2!x !3!A, !2!x | x !3!A, !3!x !3!A, !3!x !3!A, !3!x !3!A, | %4
 x !3!G, !3!x !2!x !3!G, !2!x !3!G, !2!x | !6!x !4!E,- !4!E,2 !3!G, !2!x !3!G, !3!x | %6
 x !3!A, !4!F, !1!E !3!A, !2!D !4!F, !3!A, | !6!F,,6 x2 | x !3!B, !3!x !2!x !3!x !3!B, !2!x !2!x | %9
 x !3!B, !3!x !3!B, !3!x !3!B, !3!x !3!B, | x !3!A, !2!x !3!x !2!x !3!A, !2!x !2!x | %11
 x !3!A, !3!x !3!A, !3!x !3!A, !3!x !3!A, | x !4!D, !3!B, !3!x !3!B, !3!x !3!B, !3!x | %13
 x !3!G, !3!x !3!x !3!G, !2!x !3!G, !3!x | x !5!C, !4!D, !3!G, !4!D, !5!C, !4!D, !3!G, | %15
 x !5!C, !4!D, !3!A, !4!D, !5!C, !4!D, !3!A, | x !3!B, !3!x !2!x !3!x !3!B, !2!x !2!x | %17
 x !3!B, !3!x !3!B, !3!x !3!B, !3!x !3!B, | x !3!A, !2!x !3!x !2!x !3!A, !2!x !2!x | %19
 x !3!A, !2!D !3!A, x !2!D !3!G, !2!x | x !3!G, !4!D, !2!x !3!G, !2!x !4!D, !2!x | %21
 x !3!G, !2!^C !3!G, !2!x !3!G, !2!x !2!x | x !3!A, !2!D !2!x !2!D !1!F !2!D !3!A, | !4!D,6 x2 | %24
 x !3!B, !3!x !2!x !3!x !3!B, !2!x !2!x | x !3!B, !1!x !2!x !1!x !3!B, !2!x !2!x | %26
 x !3!A, !2!x !3!x !2!x !3!A, !2!x !2!x | x !3!A, !2!x !3!x !2!x !3!A, !2!x !2!x | %28
 x !4!D, !3!B, !3!x !3!B, !3!x !3!B, !3!x | x !3!G, !3!x !3!x !3!G, !2!x !3!G, !3!x | %30
 x !5!C, !4!D, !3!G, !4!D, !5!C, !4!D, !3!G, | x !5!C, !4!D, !3!A, !4!D, !5!C, !4!D, !3!A, | %32
 x !3!B, !3!x !2!x !3!x !3!B, !2!x !2!x | x !3!B, !1!x !2!x !1!x !3!B, !2!x !2!x | %34
 x !3!A, !2!x !3!x !2!x !3!A, !2!x !2!x | x !3!A, !2!D !3!A, x !2!D !3!G, !2!x | %36
 x !3!G, !4!D, !2!x !3!G, !2!x !4!D, !2!x | x !3!G, !2!^C !3!G, !2!x !3!G, !2!x !2!x | %38
 x !3!A, !2!D !2!x !2!D !1!F !2!D !3!A, | !4!D,6 x2 | !6!G,, !4!D, !3!B,4 !4!D, !3!B, | %41
 !6!F,, !4!D, !3!A,4 !4!D, !3!G, | x !4!E, !3!G, !4!E, !5!A,,4 | %43
 x !3!A, !2!D !2!x !2!D !2!x !2!D !3!A, | !6!x !4!D, !3!B,4 !4!D, !3!B, | %45
 !6!x !4!D, !3!A,4 !4!D, !3!G, | x !4!E, !3!G, !4!E, !5!A,,4 | x !3!A, !2!D !1!F !2!D !3!A, x2 | %48
 x !2!_E !4!G, !3!x !3!B, !2!x !4!G, !3!x | x !3!C !2!x !2!_E !2!x !3!C !2!x !3!E | %50
 x !3!D !4!^A, !3!x !3!D !2!x !4!^A, !3!x | x !3!E !2!x !2!G !2!x !3!E !2!x !3!G | %52
 x !2!B !2!x !2!x2 !2!B !3!G, !2!x | x !2!A !2!x !2!x2 !2!A !3!G, !2!x | %54
 x !2!A !2!x !2!A x !3!D !2!x !3!D | x !2!E !2!x !2!E x !3!B, !1!x !3!B, | %56
 x !2!D !2!x !2!D !2!x !2!D !2!x !2!D | !2!x !2!E !2!x !2!E !2!x !2!E !2!x !2!E | %58
 x !4!D, !3!B,4 !4!D, !3!B, | !arpeggio![!5!^C,!4!G,!3!B,!2!E]6 x2 | %60
 x !3!B, !3!x !2!x !3!x !3!B, !2!x !2!x | x !3!B, !3!x !3!B, !3!x !3!B, !3!x !3!B, | %62
 x !3!A, !2!x !3!x !2!x !3!A, !2!x !2!x | x !3!A, !3!x !3!A, !3!x !3!A, !3!x !3!A, | %64
 x !3!G, !3!x !2!x !3!G, !2!x !3!G, !2!x | !6!x !4!E,- !4!E,2 !3!G, !2!x !3!G, !3!x | %66
 x !3!A, !4!F, !1!E !3!A, !2!D !4!F, !3!A, | !6!F,,6 x2 | x !3!B, !1!x !2!x !3!B, !2!x !3!B, !2!x | %69
 x !3!B, !3!x !3!B, !3!x !3!B, !3!x !3!B, | x !3!A, !2!x !2!x !3!A, !2!x !3!A, !2!x | %71
 x !3!A, !3!x !3!A, !3!x !3!A, !3!x !3!A, | x !3!G, !3!x !2!x !3!G, !2!x !3!G, !2!x | %73
 !6!x !4!E,- !4!E,2 !3!G, !2!x !3!G, !3!x | x !3!A, !4!F, !1!E !3!A, !2!D !4!F, !3!A, | %75
 x !3!A, !4!F, !1!E !3!A, !2!D !4!F, !3!A, | x !3!B, !1!x !2!x !3!B, !2!x !3!B, !2!x | %77
 x !3!B, !3!x !3!B, !3!x !3!B, !3!x !3!B, | x !4!C !3!x !3!x !4!C !2!x !4!C !2!x | %79
 x !3!F !2!A !3!F !2!x !3!F !2!A !3!F | x !3!A, !3!x !2!x !4!F,2 !3!A,2 | %81
 x !3!G, !2!^C !4!E, !2!x !3!G, !3!x !3!G, | x8 | x8 |] %84
V:6
 !4!D,8 | !5!^C,8 | !5!C,8 | !5!=B,,8 | !5!B,,6 x2 | !5!A,,8 | !6!F,,8 | x8 | !4!D,8 | !5!^C,8 | %10
 !5!C,6 x2 | !5!=B,,8 | !6!G,,7 x | !5!C,6 x2 | !6!F,,8 | !6!F,,8 | !4!D,8 | !5!^C,8 | !5!C,6 x2 | %19
 !5!=B,,4 !4!D,4 | !6!G,,4 x4 | !5!A,,8 | !4!D,8 | x8 | !4!D,8 | !5!^C,8 | !5!C,6 x2 | %27
 !5!=B,,6 x2 | !6!G,,7 x | !5!C,6 x2 | !6!F,,8 | !6!F,,8 | !4!D,8 | !5!^C,8 | !5!C,6 x2 | %35
 !5!=B,,4 !4!D,4 | !6!G,,4 x4 | !5!A,,8 | !4!D,8 | x8 | !6!G,,4 !6!G,,2 x2 | !6!F,,4 !6!F,,4 | %42
 !6!E,,4 x4 | !4!D,8 | !6!G,,4 !6!G,,2 x2 | !6!F,,4 !6!F,,4 | !6!E,,4 x4 | !4!D,6 x2 | %48
"Cm7" !5!C,6 x2 |"F" !4!F,6 x2 |"Em7" !5!E,6 x2 |"A" !4!A,6 x2 | !3!G,4 !3!G,4 | !3!G,4 !3!G,4 | %54
 !5!F,4 !4!G,4 | !5!^C,4 !4!D,4 | !5!B,,4 !5!=B,,4 | !5!C,4 !5!^C,4 | !6!D,,4 !6!D,,4 | x8 | %60
 !4!D,8 | !5!^C,8 | !5!C,6 x2 | !5!=B,,8 | !5!B,,6 x2 | !5!A,,8 | !6!F,,8 | x8 | !4!D,8 | !5!^C,8 | %70
 !5!C,8 | !5!=B,,8 | !5!B,,6 x2 | !5!A,,8 | !6!F,,8 | !6!F,,8 | !4!D,8 | !5!^C,8 | !5!F,6 x2 | %79
 !4!=B,6 x2 | !5!B,,7 x | !5!A,,6 x2 | !4!F,8 | !6!D,,6 x2 |] %84
V:7
 x8 | x2 !3!e2 d2 e2 | x8 | x2 !4!d2 !0!=B2 d2 | x8 | x8 | x8 | x8 | x8 | x2 e2 d2 e2 | x8 | %11
 x2 d2 =B2 d2 | x8 | x8 | x8 | x8 | x8 | x2 e2 d2 e2 | x8 | x8 | x8 | x8 | x8 | x8 | x8 | x8 | x8 | %27
 x8 | x8 | x8 | x8 | x8 | x8 | x8 | x8 | x8 | x8 | x8 | x8 | x8 | x8 | x8 | x8 | x8 | x8 | x8 | %46
 x8 | x8 | x8 | x8 | x8 | x8 | x8 | x8 | x8 | x8 | x8 | x8 | x8 | x8 | x8 | x2 e2 d2 e2 | x8 | %63
 x2 d2 =B2 d2 | x8 | x8 | x8 | x8 | x8 | x2 !3!e2 d2 e2 | x8 | x2 !4!d2 !0!=B2 d2 | x8 | x8 | x8 | %75
 x8 | x8 | x2 !3!e2 d2 e2 | x8 | x8 | x8 | x8 | x8 | x8 |] %84
V:8
 x8 | x2 !2!E2 !2!D2 !2!E2 | x8 | x2 !2!D2 !2!=B,2 !2!D2 | x8 | x8 | x8 | x8 | x8 | %9
 x2 !2!E2 !2!D2 !2!E2 | x8 | x2 !2!D2 !2!=B,2 !2!D2 | x8 | x8 | x8 | x8 | x8 | %17
 x2 !2!E2 !2!D2 !2!E2 | x8 | x8 | x8 | x8 | x8 | x8 | x8 | x8 | x8 | x8 | x8 | x8 | x8 | x8 | x8 | %33
 x8 | x8 | x8 | x8 | x8 | x8 | x8 | x8 | x8 | x8 | x8 | x8 | x8 | x8 | x8 | x8 | x8 | x8 | x8 | %52
 x8 | x8 | x8 | x8 | x8 | x8 | x8 | x8 | x8 | x2 !2!E2 !2!D2 !2!E2 | x8 | x2 !2!D2 !2!=B,2 !2!D2 | %64
 x8 | x8 | x8 | x8 | x8 | x2 !2!E2 !2!D2 !2!E2 | x8 | x2 !2!D2 !2!=B,2 !2!D2 | x8 | x8 | x8 | x8 | %76
 x8 | x2 !2!E2 !2!D2 !2!E2 | x8 | x8 | x8 | x8 | x8 | x8 |] %84

